X: 1
T: Old Molly Oxford (Field Town)
T: Step-Back
C: Trad
R: Morris
L: 1/8
M: 4/4
K: D
Z: ABC transcription by Verge Roller
r: 32
|: A2 | "D" d2 cd "A" e2 f2 | "A" e2 dc "G" Bc d2 | "A" c2 A2 "G" B2 G2 | "A" A2 AG "D" FG A2 |
"D" d2 (3edc "G" B2 AG | "D" F2 A2 d4 | "D" F2 (3FED "A" E2 C2 | "D" D4-D2 :|
|: z2 | "D" AGFE D2 EF | "G" G2 A2 "Bm" B2 c2 | "Bm" dcBA "G" G2 A2 | "G" Bcdf "A" e2 ce |
"G" d2 Bd "A" c2 A2 | "G" BGEF G2 B2 | "D" AGFE D2 EF | "G" G4-G2 :|
